X: 340
T: Chuanbusi de riben guizi
L: 1/8
M: 2/4
K: F
f> d c c/ f/ [I:setbarnb 1]| 
c c/ G/ F C | 
F F/ G/ c c | 
C4 | 
f f/ d/ c f | 
c G F C | 
F G F C | 
F F/ G/ F C | 
B G F C | 
F> G F C | 
c G F C | 
F G F C | 
c G F C | 
F G F C | 
c G F C | 
c G F C | 
F F/ G/c2- | 
c4 | 
fc2B | 
G Fz2 |]

@@@ Tune index: 9214
